public/clients/beta.svg

<?xml version="1.0" encoding="UTF-8"?>
<svg width="136px" height="46px" viewBox="0 0 136 46" version="1.1" xmlns="http://www.w3.org/2000/svg" xmlns:xlink="http://www.w3.org/1999/xlink">
    <!-- Generator: Sketch 53.2 (72643) - https://sketchapp.com -->
    <title>Beta_Logo_White</title>
    <desc>Created with Sketch.</desc>
    <g id="Page-1" stroke="none" stroke-width="1" fill="none" fill-rule="evenodd">
        <g id="Beta_Logo_White" fill-rule="nonzero">
            <path d="M34,28.0005558 C34,37.5898291 28.1669669,44 19.2689121,44 C14.8505043,44 11.3721182,42.2362095 9.07258646,39.060164 L9.07258646,43.6484646 L0,43.6484646 L0,0 L9.07258646,0 L9.07258646,16.647492 C11.3139409,13.4714464 14.7892651,11.707656 19.0913184,11.707656 C27.9893732,11.7045991 34,18.2370432 34,28.0005558 M24.8079971,27.7071002 C24.8079971,22.6480478 21.626621,19.0012505 16.9724424,19.0012505 C12.3182637,19.0012505 9.07564841,22.589968 9.07564841,27.7071002 C9.07564841,32.9434487 12.3182637,36.4710296 16.9724424,36.4710296 C21.626621,36.4710296 24.8079971,32.8823121 24.8079971,27.7071002" id="Shape" fill="#FFFFFF"></path>
            <path d="M62.8354783,34.5774421 L68.2044756,39.3875977 C64.4233577,43.7760839 59.4220131,46 53.4444871,46 C43.0139262,46 36,39.3875977 36,29.5299021 C36,19.7908987 42.5258356,13.0598042 52.8359585,13.0004582 C62.350557,12.9411121 68.6323473,18.6508293 69,27.9056937 L46.3101229,33.7965727 C47.7110065,36.9231738 50.5191126,38.78789 54.1164041,38.78789 C57.285824,38.7847665 60.334806,37.3417198 62.8354783,34.5774421 M45.3909912,28.2680171 L59.7864964,24.4198926 C58.750096,21.2964149 56.4934691,19.8533682 53.3208798,19.8533682 C48.6840184,19.8502448 45.6952555,22.7956842 45.3909912,28.2680171" id="Shape" fill="#FFFFFF"></path>
            <path d="M89,42.7877893 C86.5395224,44.1642069 83.465523,45 80.5768584,45 C74.4895728,45 70,41.2342706 70,34.3583968 L70,5 L79.4073327,5 L79.4073327,13.8488426 L88.4471914,13.8488426 L88.4471914,20.2462327 L79.4073327,20.2462327 L79.4073327,32.801771 C79.4073327,35.8528818 80.6982846,37.2261923 82.7880928,37.2261923 C84.0183317,37.2261923 85.4339051,36.865776 87.0316179,36.0299829 L89,42.7877893 Z" id="Path" fill="#FFFFFF"></path>
            <path d="M122,12.3647615 L122,44.6414738 L112.969325,44.6414738 L112.969325,40.021162 C110.726994,43.2011337 107.303681,45 102.993865,45 C93.9631902,45 88,38.3407652 88,28.3799717 C88,18.6 93.8435583,12.0623524 102.699387,12 C107.187117,12 110.668712,13.7988663 112.972393,17.0380727 L112.972393,12.3585262 L122,12.3585262 L122,12.3647615 Z M112.969325,29.7018422 L112.969325,27.5413321 C112.496933,22.8617855 109.42638,19.6818139 105.119632,19.6818139 C100.395706,19.6818139 97.1503067,23.4011337 97.0920245,28.6200283 C97.1503067,33.8981578 100.337423,37.5582428 105.119632,37.5582428 C109.42638,37.5613604 112.496933,34.3813888 112.969325,29.7018422 L112.969325,29.7018422 Z" id="Shape" fill="#FFFFFF"></path>
            <path d="M136,39.5015291 C136,41.9235474 133.921196,44 131.503057,44 C129.078804,44 127,41.9235474 127,39.5015291 C127,37.0764526 129.078804,35 131.503057,35 C133.924253,35 136,37.0795107 136,39.5015291" id="Path" fill="#EA8223"></path>
        </g>
    </g>
</svg>

<svg width="136" height="46" viewBox="0 0 136 46" xmlns="http://www.w3.org/2000/svg"><g fill="none" fill-rule="nonzero"><path d="M34,28c0,9.59-5.83,16-14.73,16-4.42,0-7.9-1.76-10.2-4.94v4.59H0V0h9.07v16.65c2.24-3.18,5.72-4.94,10.02-4.94C27.99,11.7,34,18.24,34,28m-9.19-.29c0-5.06-3.18-8.71-7.84-8.71s-7.9,3.59-7.9,8.71c0,5.24,3.24,8.76,7.9,8.76s7.84-3.59,7.84-8.76" fill="#032D60"/><path d="M62.84,34.58L68.2,39.39C64.42,43.78,59.42,46,53.44,46,43.01,46,36,39.39,36,29.53S42.53,13.06,52.84,13C62.35,12.94,68.63,18.65,69,27.91L46.31,33.8c1.4,3.13,4.21,4.99,7.81,4.99,3.17,0,6.22-1.44,8.72-4.21M45.39,28.27l14.4-3.85c-1.04-3.12-3.3-4.57-6.47-4.57-4.64,0-7.63,2.95-7.93,8.42" fill="#032D60"/><path d="M89,42.79c-2.46,1.38-5.53,2.21-8.42,2.21C74.49,45,70,41.23,70,34.36V5h9.41v8.85h9.04v6.4h-9.04v12.55c0,3.05,1.29,4.43,3.38,4.43,1.23,0,2.65-.36,4.24-1.2L89,42.79z" fill="#032D60"/><path d="M122,12.36v32.28h-9.03V40.02c-2.24,3.18-5.67,4.98-9.98,4.98C93.96,45,88,38.34,88,28.38,88,18.6,93.84,12.06,102.7,12c4.49,0,7.97,1.8,10.27,5.04v-4.68H122zm-9.03,17.34v-2.16c-.47-4.68-3.54-7.86-7.85-7.86-4.72,0-7.97,3.72-8.03,8.94.06,5.28,3.25,8.94,8.03,8.94,4.31,0,7.38-3.18,7.85-7.86z" fill="#032D60"/><path d="M136,39.5c0,2.42-2.08,4.5-4.5,4.5S127,41.92,127,39.5,129.08,35,131.5,35,136,37.08,136,39.5" fill="#EA8223"/></g></svg>
